apps/scalable/knetattach.svg

<svg xmlns="http://www.w3.org/2000/svg" style="isolation:isolate" width="256" height="256"><defs><filter id="a" width="270.648" height="254.338" x="-7.32" y="2.95" filterUnits="userSpaceOnUse"><feGaussianBlur xmlns="http://www.w3.org/2000/svg" in="SourceGraphic" stdDeviation="4.294"/><feOffset xmlns="http://www.w3.org/2000/svg" dy="4" result="pf_100_offsetBlur"/><feFlood xmlns="http://www.w3.org/2000/svg" flood-opacity=".4"/><feComposite xmlns="http://www.w3.org/2000/svg" in2="pf_100_offsetBlur" operator="in" result="pf_100_dropShadow"/><feBlend xmlns="http://www.w3.org/2000/svg" in="SourceGraphic" in2="pf_100_dropShadow"/></filter></defs><g filter="url(#a)"><linearGradient id="b" x2="0" y1=".5" y2="1.5" gradientTransform="matrix(244.648 0 0 228.338 5.676 11.947)" gradientUnits="userSpaceOnUse"><stop offset=".435%" stop-color="#07b3ff"/><stop offset="100%" stop-color="#007de8"/></linearGradient><path fill="url(#b)" d="M165.685 11.947c74.055 0 84.639 10.557 84.639 84.544v59.251c0 73.986-10.584 84.543-84.639 84.543h-75.37c-74.055 0-84.639-10.557-84.639-84.543V96.491c0-73.987 10.584-84.544 84.639-84.544h75.37z"/></g><path fill="#F7F7F7" d="M183.349 12.212c58.127 2.009 66.975 16.629 66.975 84.279v59.251c0 73.986-10.584 84.543-84.639 84.543h-75.37c-61.096 0-78.991-7.185-83.383-51.245 4.973-6.112 176.887-173.772 176.417-176.828z" opacity=".1"/><g opacity=".4"><linearGradient id="c" x1=".517" x2=".517" y2="1"><stop offset="0%" stop-color="#fff"/><stop offset="12.5%" stop-opacity=".098" stop-color="#fff"/><stop offset="92.5%" stop-opacity=".098"/><stop offset="100%" stop-opacity=".498"/></linearGradient><path fill="none" stroke="url(#c)" stroke-linecap="round" stroke-linejoin="round" stroke-width="4.077" d="M165.685 11.947c74.055 0 84.639 10.557 84.639 84.544v59.251c0 73.986-10.584 84.543-84.639 84.543h-75.37c-74.055 0-84.639-10.557-84.639-84.543V96.491c0-73.987 10.584-84.544 84.639-84.544h75.37z" vector-effect="non-scaling-stroke"/></g><g filter="url(#d)"><path fill="#D5DFE3" d="M91.697 61.745c-11.35.13-19.655-.258-26.446 3.474-3.395 1.865-6.09 5.007-7.576 8.947-1.485 3.941-2.008 8.62-2.008 14.528v37.728H200v-23.356c0-5.907-.523-10.587-2.009-14.527-.184-.49-.432-.934-.669-1.386-.09-.166-.161-.342-.247-.509-1.558-3.043-3.838-5.52-6.66-7.07-6.791-3.731-15.096-3.326-26.446-3.457h-36.435l-14.627-14.372h-21.21z"/><clipPath id="e"><path fill="#FFF" d="M91.697 61.745c-11.35.13-19.655-.257-26.446 3.473-3.395 1.866-6.09 5.008-7.576 8.948-1.485 3.941-2.008 8.62-2.008 14.528v37.728H200v-23.356c0-5.907-.523-10.587-2.009-14.527-.184-.49-.432-.934-.669-1.386-.09-.166-.161-.342-.247-.509-1.558-3.043-3.838-5.52-6.66-7.07-6.791-3.731-15.096-3.326-26.445-3.457h-36.436l-14.627-14.372h-21.21z"/></clipPath><g clip-path="url(#e)"><defs><filter id="f" width="185.041" height="155.69" x="35.31" y="55.76" filterUnits="userSpaceOnUse"><feGaussianBlur xmlns="http://www.w3.org/2000/svg" stdDeviation="1.44"/></filter></defs><path d="M163.97 76.117c11.349.13 19.654-.257 26.445 3.474 3.396 1.866 6.091 5.008 7.576 8.948 1.486 3.94 2.009 8.62 2.009 14.527v61.085c0 5.907-.523 10.587-2.009 14.527-1.485 3.94-4.18 7.1-7.576 8.965-6.791 3.731-15.096 3.326-26.445 3.457H91.695c-11.35-.131-19.655.274-26.446-3.457-3.396-1.865-6.091-5.025-7.576-8.965-1.483-3.94-2.006-8.62-2.006-14.527v-46.712c0-5.907.523-10.587 2.008-14.527.185-.49.432-.934.67-1.386.09-.166.16-.342.246-.509 1.558-3.043 3.838-5.52 6.66-7.071 6.791-3.731 15.096-3.325 26.446-3.456H113.7l14.627-14.373h35.643z" opacity=".2" filter="url(#f)"/></g><path fill="#F0F9FC" fill-opacity=".996" d="M163.97 76.117c11.349.13 19.654-.257 26.445 3.474 3.396 1.866 6.091 5.008 7.576 8.948 1.486 3.94 2.009 8.62 2.009 14.527v61.084c0 5.908-.523 10.588-2.009 14.528-1.485 3.94-4.18 7.1-7.576 8.965-6.791 3.731-15.096 3.326-26.445 3.457H91.695c-11.35-.131-19.655.274-26.446-3.457-3.396-1.865-6.091-5.025-7.576-8.965-1.483-3.94-2.006-8.62-2.006-14.528V117.439c0-5.907.523-10.587 2.008-14.527.185-.49.432-.934.67-1.386.09-.166.16-.342.246-.509 1.558-3.043 3.838-5.52 6.66-7.071 6.791-3.731 15.096-3.325 26.446-3.456H113.699l14.627-14.373h35.644z"/><path fill="#FFF" d="M91.697 61.745c-11.35.13-19.655-.258-26.446 3.474-3.395 1.865-6.09 5.007-7.576 8.947-1.485 3.941-2.008 8.62-2.008 14.528v1.796c0-5.907.523-10.587 2.008-14.527 1.486-3.94 4.181-7.082 7.576-8.948 6.791-3.731 15.096-3.344 26.446-3.474h21.209l14.109 13.864 1.311-1.288h-.793l-14.627-14.372H91.697z" opacity=".4"/><path fill="#FFF" d="M128.327 76.117L113.7 90.49H91.697c-11.35.131-19.654-.275-26.446 3.457-2.821 1.55-5.102 4.027-6.659 7.07-.086.167-.157.343-.247.509-.238.452-.485.896-.67 1.386-1.485 3.94-2.008 8.62-2.008 14.527v1.797c0-5.907.523-10.587 2.008-14.527.185-.49.432-.935.67-1.386.09-.166.161-.342.247-.509 1.557-3.043 3.838-5.521 6.659-7.071 6.792-3.731 15.096-3.326 26.446-3.456H113.7l14.627-14.373h35.642c11.35.13 19.655-.257 26.446 3.474 3.395 1.865 6.091 5.008 7.576 8.948 1.485 3.94 2.008 8.62 2.008 14.527v-1.797c0-5.907-.523-10.587-2.008-14.527-1.485-3.94-4.181-7.082-7.576-8.948-6.791-3.731-15.096-3.343-26.446-3.474h-35.642z"/></g><defs><filter id="d" width="204.333" height="189.355" x="25.67" y="35.74" filterUnits="userSpaceOnUse"><feGaussianBlur xmlns="http://www.w3.org/2000/svg" in="SourceGraphic" stdDeviation="4.294"/><feOffset xmlns="http://www.w3.org/2000/svg" dy="4" result="pf_100_offsetBlur"/><feFlood xmlns="http://www.w3.org/2000/svg" flood-opacity=".4"/><feComposite xmlns="http://www.w3.org/2000/svg" in2="pf_100_offsetBlur" operator="in" result="pf_100_dropShadow"/><feBlend xmlns="http://www.w3.org/2000/svg" in="SourceGraphic" in2="pf_100_dropShadow"/></filter></defs><defs><filter id="g" width="60" height="62" x="95.35" y="108" filterUnits="userSpaceOnUse"><feGaussianBlur xmlns="http://www.w3.org/2000/svg" in="SourceGraphic"/><feOffset xmlns="http://www.w3.org/2000/svg" dy="2" result="pf_100_offsetBlur"/><feFlood xmlns="http://www.w3.org/2000/svg" flood-color="#FFF"/><feComposite xmlns="http://www.w3.org/2000/svg" in2="pf_100_offsetBlur" operator="in" result="pf_100_dropShadow"/><feBlend xmlns="http://www.w3.org/2000/svg" in="SourceGraphic" in2="pf_100_dropShadow"/></filter></defs><path fill="#07B3FF" d="M155.35 117.995c0-5.5-4.821-10-10.714-10-5.91.017-10.696 4.484-10.715 10 0 5.5 4.822 10 10.715 10s10.714-4.5 10.714-10zm0 40c0-5.5-4.821-10-10.714-10-5.91.017-10.696 4.484-10.715 10 0 5.5 4.822 10 10.715 10s10.714-4.5 10.714-10zm-4.286-40c0 3.336-2.854 6-6.428 6-3.575 0-6.429-2.664-6.429-6s2.854-6 6.429-6c3.574 0 6.428 2.664 6.428 6zm0 40c0 3.336-2.854 6-6.428 6-3.575 0-6.429-2.664-6.429-6s2.854-6 6.429-6c3.574 0 6.428 2.664 6.428 6zm-18.283-31.56a13.808 13.808 0 0 1-2.117-3.488l-16.513 8.572c-2.013-2.223-4.968-3.51-8.087-3.524-5.909.017-10.695 4.484-10.714 10 0 5.5 4.821 10 10.714 10 3.236 0 6.116-1.388 8.087-3.52l16.513 8.568a13.725 13.725 0 0 1 2.117-3.484l-16.543-8.58c.318-.948.541-1.94.541-2.984s-.223-2.036-.545-2.984l16.547-8.576zm-20.288 11.56c0 3.336-2.854 6-6.429 6-3.574 0-6.428-2.664-6.428-6s2.854-6 6.428-6c3.575 0 6.429 2.664 6.429 6z" filter="url(#g)"/></svg>

<svg xmlns="http://www.w3.org/2000/svg" style="isolation:isolate" width="256" height="256" viewBox="0 0 256 256">
 <defs>
  <filter id="JVSh7mUdZrPudZDdO2EMpVvEWJuJ02mK" width="270.648" height="254.338" x="-7.32" y="2.95" filterUnits="userSpaceOnUse">
   <feGaussianBlur xmlns="http://www.w3.org/2000/svg" in="SourceGraphic" stdDeviation="4.294"/>
   <feOffset xmlns="http://www.w3.org/2000/svg" dx="0" dy="4" result="pf_100_offsetBlur"/>
   <feFlood xmlns="http://www.w3.org/2000/svg" flood-opacity=".4"/>
   <feComposite xmlns="http://www.w3.org/2000/svg" in2="pf_100_offsetBlur" operator="in" result="pf_100_dropShadow"/>
   <feBlend xmlns="http://www.w3.org/2000/svg" in="SourceGraphic" in2="pf_100_dropShadow" mode="normal"/>
  </filter>
 </defs>
 <g filter="url(#JVSh7mUdZrPudZDdO2EMpVvEWJuJ02mK)">
  <linearGradient id="_lgradient_30" x1="0" x2="0" y1=".5" y2="1.5" gradientTransform="matrix(244.648,0,0,228.338,5.676,11.947)" gradientUnits="userSpaceOnUse">
   <stop offset=".435%" style="stop-color:rgb(7,179,255)"/>
   <stop offset="100%" style="stop-color:rgb(0,125,232)"/>
  </linearGradient>
  <path fill="url(#_lgradient_30)" d="M 165.685 11.947 C 239.74 11.947 250.324 22.504 250.324 96.491 L 250.324 155.742 C 250.324 229.728 239.74 240.285 165.685 240.285 L 90.315 240.285 C 16.26 240.285 5.676 229.728 5.676 155.742 L 5.676 96.491 C 5.676 22.504 16.26 11.947 90.315 11.947 L 165.685 11.947 Z"/>
 </g>
 <g opacity=".1">
  <path fill="#F7F7F7" d="M 183.349 12.212 C 241.476 14.221 250.324 28.841 250.324 96.491 L 250.324 155.742 C 250.324 229.728 239.74 240.285 165.685 240.285 L 90.315 240.285 C 29.219 240.285 11.324 233.1 6.932 189.04 C 11.905 182.928 183.819 15.268 183.349 12.212 Z"/>
 </g>
 <g opacity=".4">
  <linearGradient id="_lgradient_31" x1=".517" x2=".517" y1="0" y2="1">
   <stop offset="0%" style="stop-color:rgb(255,255,255)"/>
   <stop offset="12.5%" stop-opacity=".098" style="stop-color:rgb(255,255,255)"/>
   <stop offset="92.5%" stop-opacity=".098" style="stop-color:rgb(0,0,0)"/>
   <stop offset="100%" stop-opacity=".498" style="stop-color:rgb(0,0,0)"/>
  </linearGradient>
  <path fill="none" stroke="url(#_lgradient_31)" stroke-linecap="round" stroke-linejoin="round" stroke-width="4.077" d="M 165.685 11.947 C 239.74 11.947 250.324 22.504 250.324 96.491 L 250.324 155.742 C 250.324 229.728 239.74 240.285 165.685 240.285 L 90.315 240.285 C 16.26 240.285 5.676 229.728 5.676 155.742 L 5.676 96.491 C 5.676 22.504 16.26 11.947 90.315 11.947 L 165.685 11.947 Z" vector-effect="non-scaling-stroke"/>
 </g>
 <g filter="url(#ZjgmMGkIZ3DBZgNTtOO9OLWHAJygzMYw)">
  <path fill="#D5DFE3" d="M 91.697 61.745 C 80.347 61.875 72.042 61.487 65.251 65.219 C 61.856 67.084 59.161 70.226 57.675 74.166 C 56.19 78.107 55.667 82.786 55.667 88.694 L 55.667 126.422 L 200 126.422 L 200 103.066 C 200 97.159 199.477 92.479 197.991 88.539 C 197.807 88.049 197.559 87.605 197.322 87.153 C 197.232 86.987 197.161 86.811 197.075 86.644 C 195.517 83.601 193.237 81.124 190.415 79.574 C 183.624 75.843 175.319 76.248 163.969 76.117 L 163.917 76.117 L 127.534 76.117 L 112.907 61.745 L 91.715 61.745 L 91.697 61.745 Z"/>
  <clipPath id="_clipPath_EbY4DHngYukIOUsaePqE4vGZYD5WiBCt">
   <path fill="#FFFFFF" d="M 91.697 61.745 C 80.347 61.875 72.042 61.488 65.251 65.218 C 61.856 67.084 59.161 70.226 57.675 74.166 C 56.19 78.107 55.667 82.786 55.667 88.694 L 55.667 126.422 L 200 126.422 L 200 103.066 C 200 97.159 199.477 92.479 197.991 88.539 C 197.807 88.049 197.559 87.605 197.322 87.153 C 197.232 86.987 197.161 86.811 197.075 86.644 C 195.517 83.601 193.237 81.124 190.415 79.574 C 183.624 75.843 175.319 76.248 163.97 76.117 L 163.917 76.117 L 127.534 76.117 L 112.907 61.745 L 91.715 61.745 L 91.697 61.745 Z"/>
  </clipPath>
  <g clip-path="url(#_clipPath_EbY4DHngYukIOUsaePqE4vGZYD5WiBCt)">
   <defs>
    <filter id="3INH8kvww372UyFQPul8aDuAwEa3fTB5" width="185.041" height="155.69" x="35.31" y="55.76" filterUnits="userSpaceOnUse">
     <feGaussianBlur xmlns="http://www.w3.org/2000/svg" stdDeviation="1.44"/>
    </filter>
   </defs>
   <g opacity=".2" filter="url(#3INH8kvww372UyFQPul8aDuAwEa3fTB5)">
    <path d="M 163.97 76.117 C 175.319 76.247 183.624 75.86 190.415 79.591 C 193.811 81.457 196.506 84.599 197.991 88.539 C 199.477 92.479 200 97.159 200 103.066 L 200 164.151 C 200 170.058 199.477 174.738 197.991 178.678 C 196.506 182.618 193.811 185.778 190.415 187.643 C 183.624 191.374 175.319 190.969 163.97 191.1 L 163.915 191.1 L 91.749 191.1 L 91.695 191.1 C 80.345 190.969 72.04 191.374 65.249 187.643 C 61.853 185.778 59.158 182.618 57.673 178.678 C 56.19 174.738 55.667 170.058 55.667 164.151 L 55.667 158.761 L 55.667 117.439 C 55.667 111.532 56.19 106.852 57.675 102.912 C 57.86 102.422 58.107 101.978 58.345 101.526 C 58.435 101.36 58.505 101.184 58.591 101.017 C 60.149 97.974 62.429 95.497 65.251 93.946 C 72.042 90.215 80.347 90.621 91.697 90.49 L 91.75 90.49 L 113.7 90.49 L 128.327 76.117 L 163.952 76.117 L 163.97 76.117 Z"/>
   </g>
  </g>
  <path fill="#F0F9FC" fill-opacity=".996" d="M 163.97 76.117 C 175.319 76.247 183.624 75.86 190.415 79.591 C 193.811 81.457 196.506 84.599 197.991 88.539 C 199.477 92.479 200 97.159 200 103.066 L 200 164.15 C 200 170.058 199.477 174.738 197.991 178.678 C 196.506 182.618 193.811 185.778 190.415 187.643 C 183.624 191.374 175.319 190.969 163.97 191.1 L 163.915 191.1 L 91.749 191.1 L 91.695 191.1 C 80.345 190.969 72.04 191.374 65.249 187.643 C 61.853 185.778 59.158 182.618 57.673 178.678 C 56.19 174.738 55.667 170.058 55.667 164.15 L 55.667 158.761 L 55.667 117.439 C 55.667 111.532 56.19 106.852 57.675 102.912 C 57.86 102.422 58.107 101.978 58.345 101.526 C 58.435 101.36 58.505 101.184 58.591 101.017 C 60.149 97.974 62.429 95.497 65.251 93.946 C 72.042 90.215 80.347 90.621 91.697 90.49 L 91.75 90.49 L 113.699 90.49 L 128.326 76.117 L 163.952 76.117 L 163.97 76.117 Z"/>
  <g opacity=".4">
   <path fill="#FFFFFF" d="M 91.697 61.745 C 80.347 61.875 72.042 61.487 65.251 65.219 C 61.856 67.084 59.161 70.226 57.675 74.166 C 56.19 78.107 55.667 82.786 55.667 88.694 L 55.667 90.49 C 55.667 84.583 56.19 79.903 57.675 75.963 C 59.161 72.023 61.856 68.881 65.251 67.015 C 72.042 63.284 80.347 63.671 91.697 63.541 L 91.714 63.541 L 112.906 63.541 L 127.015 77.405 L 128.326 76.117 L 127.533 76.117 L 112.906 61.745 L 91.714 61.745 L 91.697 61.745 Z"/>
  </g>
  <path fill="#FFFFFF" d="M 128.327 76.117 L 113.7 90.49 L 91.75 90.49 L 91.697 90.49 C 80.347 90.621 72.043 90.215 65.251 93.947 C 62.43 95.497 60.149 97.974 58.592 101.017 C 58.506 101.184 58.435 101.36 58.345 101.526 C 58.107 101.978 57.86 102.422 57.675 102.912 C 56.19 106.852 55.667 111.532 55.667 117.439 L 55.667 119.236 C 55.667 113.329 56.19 108.649 57.675 104.709 C 57.86 104.219 58.107 103.774 58.345 103.323 C 58.435 103.157 58.506 102.981 58.592 102.814 C 60.149 99.771 62.43 97.293 65.251 95.743 C 72.043 92.012 80.347 92.417 91.697 92.287 L 91.75 92.287 L 113.7 92.287 L 128.327 77.914 L 163.952 77.914 L 163.969 77.914 C 175.319 78.044 183.624 77.657 190.415 81.388 C 193.81 83.253 196.506 86.396 197.991 90.336 C 199.476 94.276 199.999 98.956 199.999 104.863 L 199.999 103.066 C 199.999 97.159 199.476 92.479 197.991 88.539 C 196.506 84.599 193.81 81.457 190.415 79.591 C 183.624 75.86 175.319 76.248 163.969 76.117 L 163.952 76.117 L 128.327 76.117 Z"/>
 </g>
 <defs>
  <filter id="ZjgmMGkIZ3DBZgNTtOO9OLWHAJygzMYw" width="204.333" height="189.355" x="25.67" y="35.74" filterUnits="userSpaceOnUse">
   <feGaussianBlur xmlns="http://www.w3.org/2000/svg" in="SourceGraphic" stdDeviation="4.294"/>
   <feOffset xmlns="http://www.w3.org/2000/svg" dx="0" dy="4" result="pf_100_offsetBlur"/>
   <feFlood xmlns="http://www.w3.org/2000/svg" flood-opacity=".4"/>
   <feComposite xmlns="http://www.w3.org/2000/svg" in2="pf_100_offsetBlur" operator="in" result="pf_100_dropShadow"/>
   <feBlend xmlns="http://www.w3.org/2000/svg" in="SourceGraphic" in2="pf_100_dropShadow" mode="normal"/>
  </filter>
 </defs>
 <defs>
  <filter id="vzZgQGGbrmV3ndBErdy7kyqA4cSrmCQI" width="60" height="62" x="95.35" y="108" filterUnits="userSpaceOnUse">
   <feGaussianBlur xmlns="http://www.w3.org/2000/svg" in="SourceGraphic" stdDeviation="0"/>
   <feOffset xmlns="http://www.w3.org/2000/svg" dx="0" dy="2" result="pf_100_offsetBlur"/>
   <feFlood xmlns="http://www.w3.org/2000/svg" flood-color="#FFFFFF"/>
   <feComposite xmlns="http://www.w3.org/2000/svg" in2="pf_100_offsetBlur" operator="in" result="pf_100_dropShadow"/>
   <feBlend xmlns="http://www.w3.org/2000/svg" in="SourceGraphic" in2="pf_100_dropShadow" mode="normal"/>
  </filter>
 </defs>
 <g filter="url(#vzZgQGGbrmV3ndBErdy7kyqA4cSrmCQI)">
  <path fill="#07B3FF" d="M 155.35 117.995 C 155.35 112.495 150.529 107.995 144.636 107.995 C 138.726 108.012 133.94 112.479 133.921 117.995 C 133.921 123.495 138.743 127.995 144.636 127.995 C 150.529 127.995 155.35 123.495 155.35 117.995 Z M 155.35 157.995 C 155.35 152.495 150.529 147.995 144.636 147.995 C 138.726 148.012 133.94 152.479 133.921 157.995 C 133.921 163.495 138.743 167.995 144.636 167.995 C 150.529 167.995 155.35 163.495 155.35 157.995 Z M 151.064 117.995 C 151.064 121.331 148.21 123.995 144.636 123.995 C 141.061 123.995 138.207 121.331 138.207 117.995 C 138.207 114.659 141.061 111.995 144.636 111.995 C 148.21 111.995 151.064 114.659 151.064 117.995 Z M 151.064 157.995 C 151.064 161.331 148.21 163.995 144.636 163.995 C 141.061 163.995 138.207 161.331 138.207 157.995 C 138.207 154.659 141.061 151.995 144.636 151.995 C 148.21 151.995 151.064 154.659 151.064 157.995 Z M 132.781 126.435 C 131.9 125.373 131.187 124.198 130.664 122.947 L 114.151 131.519 C 112.138 129.296 109.183 128.009 106.064 127.995 C 100.155 128.012 95.369 132.479 95.35 137.995 C 95.35 143.495 100.171 147.995 106.064 147.995 C 109.3 147.995 112.18 146.607 114.151 144.475 L 130.664 153.043 C 131.187 151.779 131.907 150.619 132.781 149.559 L 116.238 140.979 C 116.556 140.031 116.779 139.039 116.779 137.995 C 116.779 136.951 116.556 135.959 116.234 135.011 L 132.781 126.435 Z M 112.493 137.995 C 112.493 141.331 109.639 143.995 106.064 143.995 C 102.49 143.995 99.636 141.331 99.636 137.995 C 99.636 134.659 102.49 131.995 106.064 131.995 C 109.639 131.995 112.493 134.659 112.493 137.995 Z"/>
 </g>
</svg>
